X: 0
T: Devanny's Goat
C: Tommy Whelan
R: reel
M: 4/4
L: 1/8
K: Dmaj
|:"D"DF AB AFAB|d2 fe dBAF|DFAF BFAF|E2 ED "G"EGFE|
DFAB AFAB|defe dBAf|"G"efdB AF F2|"A"AFEG "D"FD D2:|
|:"D"faab afdf|a2 fd edBd|"G"ABde fd d2|ed fd edBd|
"D"ABde fd d2|edfd edBd|"G"A2 dB AF F2|"A"AFEG "D"FD D2:|